wordpress/wp-content/themes/bluearrow-2017/assets/images/header-icon-manifesto.svg

<?xml version="1.0" encoding="UTF-8"?>
<svg width="30px" height="30px" viewBox="0 0 30 30" version="1.1" xmlns="http://www.w3.org/2000/svg" xmlns:xlink="http://www.w3.org/1999/xlink">
    <!-- Generator: Sketch 41.2 (35397) - http://www.bohemiancoding.com/sketch -->
    <title>header-icon-manifesto</title>
    <desc>Created with Sketch.</desc>
    <defs></defs>
    <g id="export" stroke="none" stroke-width="1" fill="none" fill-rule="evenodd">
        <g id="header-icon-manifesto" fill="#FFFFFF">
            <path d="M28.99,15.67 C29.016767,8.02103819 22.9360269,1.74773083 15.2899468,1.53608804 C7.64386676,1.32444525 1.22541419,7.25177612 0.829019244,14.8905067 C0.432624297,22.5292372 6.2030825,29.0890845 13.83,29.67 C14.0479685,29.7314609 14.273539,29.7617614 14.5,29.76 C14.6679782,29.7613286 14.8356112,29.7445653 15,29.71 C22.7403418,29.6551101 28.9892151,23.3705289 29,15.63 M14.19,28 C13.8881766,27.8654587 13.7215523,27.5381703 13.7903291,27.2149544 C13.8591058,26.8917386 14.1445477,26.6606449 14.475,26.6606449 C14.8054523,26.6606449 15.0908942,26.8917386 15.1596709,27.2149544 C15.2284477,27.5381703 15.0618234,27.8654587 14.76,28 L14.19,28 M14.49,24.94 C13.1479481,24.94 12.06,26.0279481 12.06,27.37 C12.0524285,27.4798697 12.0524285,27.5901303 12.06,27.7 C5.86698783,26.2482101 1.78708073,20.3331287 2.63000822,14.0283236 C3.47293571,7.72351859 8.96342151,3.08796081 15.320306,3.31404248 C21.6771905,3.54012415 26.8244952,8.55401338 27.2174006,14.9027707 C27.610306,21.2515279 23.1205003,26.8618288 16.84,27.87 C16.9656542,27.1694553 16.7791714,26.4489662 16.3294231,25.8973519 C15.8796749,25.3457376 15.2114972,25.0179892 14.5,25" id="Shape"></path>
            <path d="M20.81,14.33 C20.5912328,11.2046347 17.9414478,8.81099565 14.81,8.91 C12.0335537,8.97984458 9.64845399,10.9018579 8.99,13.6 L10.38,13.95 C10.38,13.8 11.38,10.34 14.8,10.34 C17.112799,10.2929427 19.070665,12.037144 19.29,14.34 C19.29,18.34 16.51,19.11 14.18,19.11 L13.55,19.11 L13.55,23.11 L14.99,23.11 L14.99,20.55 C18.73,20.3 20.77,18.07 20.77,14.34" id="Shape"></path>
        </g>
    </g>
</svg>

<svg width="30" height="30" viewBox="0 0 30 30" xmlns="http://www.w3.org/2000/svg"><title>header-icon-manifesto</title><g fill="#FFF" fill-rule="evenodd"><path d="M28.99 15.67c.027-7.649-6.054-13.922-13.7-14.134C7.644 1.324 1.225 7.252.829 14.891.433 22.529 6.203 29.089 13.83 29.67a2.4 2.4 0 0 0 .67.09 2.34 2.34 0 0 0 .5-.05c7.74-.055 13.99-6.34 14-14.08M14.19 28a.7.7 0 1 1 .57 0h-.57m.3-3.06a2.43 2.43 0 0 0-2.43 2.43 2.4 2.4 0 0 0 0 .33 12.36 12.36 0 1 1 4.78.17A2.44 2.44 0 0 0 14.5 25"/><path d="M20.81 14.33a5.83 5.83 0 0 0-6-5.42 6.15 6.15 0 0 0-5.82 4.69l1.39.35c0-.15 1-3.61 4.42-3.61a4.42 4.42 0 0 1 4.49 4c0 4-2.78 4.77-5.11 4.77h-.63v4h1.44v-2.56c3.74-.25 5.78-2.48 5.78-6.21"/></g></svg>
